icons/jiraalign/jiraalign-plain-wordmark.svg

<?xml version="1.0" encoding="UTF-8" standalone="no"?>
<svg
   width="128"
   height="128"
   viewBox="0 0 128 128"
   fill="none"
   version="1.1"
   id="svg57"
   sodipodi:docname="jiraalign-plain-wordmark.svg"
   inkscape:version="1.2.1 (9c6d41e410, 2022-07-14)"
   xmlns:inkscape="http://www.inkscape.org/namespaces/inkscape"
   xmlns:sodipodi="http://sodipodi.sourceforge.net/DTD/sodipodi-0.dtd"
   xmlns="http://www.w3.org/2000/svg"
   xmlns:svg="http://www.w3.org/2000/svg">
  <sodipodi:namedview
     id="namedview59"
     pagecolor="#ffffff"
     bordercolor="#666666"
     borderopacity="1.0"
     inkscape:showpageshadow="2"
     inkscape:pageopacity="0.0"
     inkscape:pagecheckerboard="0"
     inkscape:deskcolor="#d1d1d1"
     showgrid="false"
     inkscape:zoom="6.3445883"
     inkscape:cx="52.800904"
     inkscape:cy="52.485675"
     inkscape:window-width="1920"
     inkscape:window-height="947"
     inkscape:window-x="0"
     inkscape:window-y="27"
     inkscape:window-maximized="1"
     inkscape:current-layer="svg57" />
  <path
     id="path18"
     style="fill:#000000;fill-opacity:1;stroke-width:0.876712"
     d="M 87.755859 51.738281 L 87.755859 67.433594 C 87.755859 69.916437 89.203329 70.958984 91.46875 70.958984 C 92.098227 70.958984 92.507896 70.897306 92.697266 70.835938 L 92.697266 68.751953 C 92.414088 68.782553 92.255523 68.78125 92.003906 68.78125 C 90.965881 68.78125 90.148437 68.353034 90.148438 67.126953 L 90.148438 51.738281 L 87.755859 51.738281 z M 38.451172 52.199219 C 37.475744 52.199219 36.783203 52.782055 36.783203 53.824219 C 36.783203 54.866391 37.475744 55.447266 38.451172 55.447266 C 39.4266 55.447266 40.117188 54.835732 40.117188 53.824219 C 40.117187 52.782055 39.4266 52.199219 38.451172 52.199219 z M 96.220703 52.199219 C 95.245801 52.199219 94.552734 52.782055 94.552734 53.824219 C 94.552734 54.866391 95.245801 55.447266 96.220703 55.447266 C 97.196482 55.447266 97.888672 54.835732 97.888672 53.824219 C 97.888672 52.782055 97.196482 52.199219 96.220703 52.199219 z M 31.464844 53.148438 L 31.464844 65.625 C 31.464844 67.402793 30.74095 68.628906 28.632812 68.628906 C 27.720332 68.628906 26.807934 68.474466 26.052734 68.167969 L 26.052734 70.529297 C 26.744986 70.774513 27.752888 70.988281 29.042969 70.988281 C 32.472659 70.988281 33.951172 68.719792 33.951172 65.470703 L 33.951172 53.148438 L 31.464844 53.148438 z M 75.798828 53.148438 L 68.625 70.865234 L 71.425781 70.865234 L 72.935547 66.880859 C 74.477329 67.15676 75.894571 67.341797 77.310547 67.341797 C 78.757908 67.341797 80.172388 67.188746 81.808594 66.851562 L 83.320312 70.865234 L 86.121094 70.865234 L 78.945312 53.148438 L 75.798828 53.148438 z M 0 54.183594 C 0 57.452929 2.6438615 60.119141 5.8847656 60.119141 L 11.328125 60.119141 L 11.328125 65.642578 L 17.210938 65.642578 L 17.210938 55.167969 C 17.210938 54.660107 16.802236 54.214844 16.298828 54.214844 L 0 54.183594 z M 11.328125 65.642578 C 11.317623 65.642523 11.30739 65.642578 11.296875 65.642578 L 5.8847656 65.642578 L 5.8847656 60.119141 L 0 60.119141 L 0 70.59375 C 0 71.101629 0.40866484 71.544922 0.91210938 71.544922 L 17.179688 71.544922 C 17.179688 68.286185 14.554574 65.659597 11.328125 65.642578 z M 77.373047 55.111328 L 81.054688 64.828125 C 79.638712 65.042657 78.443482 65.164634 77.279297 65.195312 C 76.177973 65.195313 75.044434 65.071954 73.691406 64.857422 L 77.373047 55.111328 z M 57.265625 57.103516 C 53.395387 57.103516 51.445312 60.322156 51.445312 64.123047 C 51.445312 68.107784 53.302981 71.142578 56.984375 71.142578 C 59.123988 71.142578 60.790869 70.223107 61.671875 68.445312 L 61.671875 70.865234 L 64.0625 70.865234 L 64.0625 57.378906 L 61.671875 57.378906 L 61.671875 59.740234 C 60.853729 57.993126 59.279342 57.103516 57.265625 57.103516 z M 105.91211 57.103516 C 102.07299 57.103516 100.1543 60.322156 100.1543 64.123047 C 100.1543 68.107784 101.97828 71.142578 105.62891 71.142578 C 107.76807 71.142578 109.43532 70.223107 110.31641 68.445312 L 110.31641 69.732422 C 110.31641 72.245863 109.1214 74.054688 105.66016 74.054688 C 103.96109 74.054688 102.35627 73.748245 100.8457 73.257812 L 100.8457 75.525391 C 102.19934 75.954539 103.45662 76.261719 105.78516 76.261719 C 110.72542 76.261719 112.64453 73.594765 112.64453 69.640625 L 112.64453 57.378906 L 110.31641 57.378906 L 110.31641 59.740234 C 109.49844 57.993126 107.92504 57.103516 105.91211 57.103516 z M 122.9668 57.134766 C 121.10992 57.134766 119.4729 58.023239 118.5918 59.617188 L 118.5918 57.410156 L 116.20117 57.410156 L 116.20117 70.896484 L 118.5918 70.896484 L 118.5918 63.386719 C 118.5918 60.658657 120.13364 59.21875 122.33594 59.21875 C 124.60136 59.21875 125.60937 60.291327 125.60938 62.712891 L 125.60938 70.865234 L 127.96875 70.865234 L 127.96875 62.988281 C 127.96875 59.279445 126.14486 57.134766 122.9668 57.134766 z M 50.009766 57.150391 C 47.624953 57.15455 46.360762 58.245991 45.59375 59.740234 L 45.59375 57.378906 L 43.263672 57.378906 L 43.263672 70.865234 L 45.59375 70.865234 L 45.59375 62.896484 C 45.59375 60.015263 47.449773 59.127095 50.501953 59.433594 L 50.501953 57.164062 C 50.332825 57.154485 50.168752 57.150113 50.009766 57.150391 z M 37.253906 57.378906 L 37.253906 70.865234 L 39.646484 70.865234 L 39.646484 57.378906 L 37.253906 57.378906 z M 94.994141 57.378906 L 94.994141 70.865234 L 97.384766 70.865234 L 97.384766 57.378906 L 94.994141 57.378906 z M 57.865234 59.248047 C 59.910424 59.248047 61.640625 60.566441 61.640625 63.570312 L 61.640625 64.644531 C 61.640625 67.648405 59.752894 68.964844 57.613281 68.964844 C 55.159019 68.964844 53.836156 67.371572 53.804688 64.091797 C 53.804688 60.965272 55.190741 59.248047 57.865234 59.248047 z M 106.50977 59.248047 C 108.55512 59.248047 110.28516 60.566441 110.28516 63.570312 L 110.28516 64.644531 C 110.28516 67.648405 108.39787 68.964844 106.25781 68.964844 C 103.8039 68.964844 102.48277 67.371572 102.45117 64.091797 C 102.45117 60.965272 103.8358 59.248047 106.50977 59.248047 z " />
  <defs
     id="defs55">
    <linearGradient
       id="paint0_linear"
       x1="8.2210398"
       y1="20.545799"
       x2="9.7713699"
       y2="12.6394"
       gradientUnits="userSpaceOnUse">
      <stop
         offset="0.15"
         stop-color="#0052CC"
         id="stop41" />
      <stop
         offset="0.5032"
         stop-color="#0E64DE"
         id="stop43" />
      <stop
         offset="1"
         stop-color="#2684FF"
         id="stop45" />
    </linearGradient>
    <linearGradient
       id="paint1_linear"
       x1="11.3908"
       y1="10.8472"
       x2="9.8403597"
       y2="18.753599"
       gradientUnits="userSpaceOnUse">
      <stop
         offset="0.15"
         stop-color="#0052CC"
         id="stop48" />
      <stop
         offset="0.5032"
         stop-color="#0E64DE"
         id="stop50" />
      <stop
         offset="1"
         stop-color="#2684FF"
         id="stop52" />
    </linearGradient>
  </defs>
</svg>

<svg xmlns="http://www.w3.org/2000/svg" fill="none" viewBox="0 0 128 128"><path fill="#000" d="M87.756 51.738v15.696c0 2.482 1.447 3.525 3.713 3.525.63 0 1.039-.062 1.228-.123v-2.084c-.283.03-.441.03-.693.03-1.038 0-1.856-.429-1.856-1.655V51.738h-2.392zM38.45 52.2c-.975 0-1.668.583-1.668 1.625s.693 1.623 1.668 1.623c.976 0 1.666-.611 1.666-1.623 0-1.042-.69-1.625-1.666-1.625zm57.77 0c-.975 0-1.668.583-1.668 1.625s.693 1.623 1.668 1.623 1.668-.611 1.668-1.623c0-1.042-.693-1.625-1.668-1.625zm-64.756.95v12.476c0 1.778-.724 3.004-2.832 3.004-.913 0-1.825-.155-2.58-.461v2.361c.692.246 1.7.46 2.99.46 3.43 0 4.908-2.27 4.908-5.518V53.148h-2.486zm44.334 0-7.174 17.716h2.8l1.51-3.984c1.542.276 2.96.46 4.376.46 1.447 0 2.861-.152 4.498-.49l1.511 4.014h2.801l-7.176-17.717H75.8zM0 54.183c0 3.269 2.644 5.935 5.885 5.935h5.443v5.524h5.883V55.168c0-.508-.409-.953-.912-.953L0 54.184zm11.328 11.459H5.885v-5.524H0v10.475c0 .508.409.95.912.95H17.18c0-3.258-2.625-5.884-5.852-5.901zM77.373 55.11l3.682 9.717c-1.416.215-2.612.337-3.776.367-1.101 0-2.235-.123-3.588-.338l3.682-9.746zm-20.107 1.993c-3.87 0-5.82 3.218-5.82 7.019 0 3.985 1.857 7.02 5.538 7.02 2.14 0 3.807-.92 4.688-2.698v2.42h2.39V57.38h-2.39v2.361c-.818-1.747-2.393-2.636-4.406-2.636zm48.646 0c-3.839 0-5.758 3.218-5.758 7.019 0 3.985 1.824 7.02 5.475 7.02 2.14 0 3.806-.92 4.687-2.698v1.287c0 2.514-1.195 4.323-4.656 4.323-1.699 0-3.304-.307-4.814-.797v2.267c1.353.43 2.61.737 4.94.737 4.94 0 6.859-2.667 6.859-6.621V57.379h-2.329v2.361c-.818-1.747-2.391-2.636-4.404-2.636zm17.055.03c-1.857 0-3.494.89-4.375 2.483V57.41h-2.39v13.486h2.39v-7.51c0-2.727 1.542-4.167 3.744-4.167 2.265 0 3.273 1.072 3.273 3.494v8.152h2.36v-7.877c0-3.709-1.824-5.853-5.002-5.853zm-72.957.016c-2.385.005-3.65 1.096-4.416 2.59V57.38h-2.33v13.486h2.33v-7.969c0-2.88 1.856-3.769 4.908-3.462v-2.27a8.444 8.444 0 0 0-.492-.014zm-12.756.229v13.486h2.392V57.38h-2.392zm57.74 0v13.486h2.39V57.38h-2.39zm-37.129 1.869c2.045 0 3.776 1.318 3.776 4.322v1.075c0 3.003-1.888 4.32-4.028 4.32-2.454 0-3.777-1.593-3.808-4.873 0-3.127 1.386-4.844 4.06-4.844zm48.645 0c2.045 0 3.775 1.318 3.775 4.322v1.075c0 3.003-1.887 4.32-4.027 4.32-2.454 0-3.775-1.593-3.807-4.873 0-3.127 1.385-4.844 4.059-4.844z"/></svg>
